icons/media/repeat-one.svg

<svg width="32" height="32" viewBox="0 0 32 32" fill="none" xmlns="http://www.w3.org/2000/svg">
<path fill-rule="evenodd" clip-rule="evenodd" d="M28.7065 7.70737L29.4136 7.00027L28.7065 6.29316L23.7062 1.29291L22.292 2.70712L25.5851 6.00026L13.9993 6.00026V6.00001H5.99927C4.8947 6.00001 3.99927 6.89544 3.99927 8.00001V17H5.99927V8.00001H13.9991V8.00026L25.5852 8.00026L22.292 11.2934L23.7062 12.7076L28.7065 7.70737ZM27.9993 24V17H25.9993V24H17.9999V23.9998H6.41386L9.70701 20.7066L8.2928 19.2924L3.29255 24.2927L2.58545 24.9998L3.29255 25.7069L8.2928 30.7071L9.70701 29.2929L6.41388 25.9998H15.9993V26H25.9993C27.1038 26 27.9993 25.1046 27.9993 24ZM13.0003 21H19.0003V19H17.0003V11H15.0003V12H13.0003V14H15.0003V19H13.0003V21Z" fill="black"/>
</svg>

<svg viewBox="0 0 32 32" xmlns="http://www.w3.org/2000/svg"><path fill-rule="evenodd" d="M28.706 7.707L29.414 7l-.708-.707-5-5-1.414 1.414L25.585 6H6a2 2 0 00-2 2v9h2V8h19.586l-3.293 3.293 1.414 1.415 5-5zM28 24v-7h-2v7H6.414l3.293-3.293-1.414-1.415-5 5-.708.708.708.707 5 5 1.414-1.414L6.414 26h19.585a2 2 0 002-2zM13 21h6v-2h-2v-8h-2v1h-2v2h2v5h-2v2z"/></svg>
